src/22/panel/pia_tray_connecting.svg

<svg xmlns="http://www.w3.org/2000/svg" width="22" height="22" version="1.1">
 <defs>
  <style id="current-color-scheme" type="text/css">
   .ColorScheme-Text { color:#dfdfdf; } .ColorScheme-Highlight { color:#4285f4; }
  </style>
 </defs>
 <path style="opacity:0.3;fill:currentColor" class="ColorScheme-Text" d="M 11.5,3 C 8.4627564,3 6.0004562,5.3276432 6,8.199219 6.00172,8.332894 6.00888,8.466457 6.021484,8.599609 L 6,8.599609 6,9 4.8339844,9 C 4.3723177,9 4,9.346455 4,9.777344 l 0,5.445312 C 4,15.653545 4.3723177,16 4.8339844,16 L 6,16 6,18.199219 C 6,18.642419 6.3769338,19 6.8457031,19 l 2.9628907,0 1.2675782,-2 0.847656,0 1.267578,2 2.962891,0 C 16.623066,19 17,18.642419 17,18.199219 L 17,16 18.166016,16 C 18.627682,16 19,15.653545 19,15.222656 L 19,9.777344 C 19,9.346455 18.627682,9 18.166016,9 L 17,9 l 0,-0.400391 -0.01758,0 C 16.99372,8.466409 16.99958,8.332846 17,8.199219 16.999544,5.3276432 14.537244,3 11.5,3 Z m 0,2 c 1.932663,-1e-7 3.5,0.9990235 3.5,3.976563 -5.58e-4,0.01498 -0.0012,0.03191 -0.002,0.04687 L 8,9.021484 C 7.9999069,9.006514 7.9999069,8.991534 8,8.976564 8,5.9990235 9.567337,4.9999998 11.5,5 Z M 9,7 9,8 10,8 10,7 9,7 Z m 4,0 0,1 1,0 0,-1 -1,0 z M 7.5,11 A 1.5,1.5 0 0 1 9,12.5 1.5,1.5 0 0 1 7.5,14 1.5,1.5 0 0 1 6,12.5 1.5,1.5 0 0 1 7.5,11 Z m 4,0 A 1.5,1.5 0 0 1 13,12.5 1.5,1.5 0 0 1 11.5,14 1.5,1.5 0 0 1 10,12.5 1.5,1.5 0 0 1 11.5,11 Z m 4,0 A 1.5,1.5 0 0 1 17,12.5 1.5,1.5 0 0 1 15.5,14 1.5,1.5 0 0 1 14,12.5 1.5,1.5 0 0 1 15.5,11 Z"/>
 <path style="fill:currentColor" class="ColorScheme-Text" d="m 7,12 0,1 1,0 0,-1 -1,0 z m 4,0 0,1 1,0 0,-1 -1,0 z m 4,0 0,1 1,0 0,-1 -1,0 z"/>
</svg>

<svg xmlns="http://www.w3.org/2000/svg" width="22" height="22"><defs><style id="current-color-scheme" type="text/css">.ColorScheme-Text{color:#bebebe}</style></defs><path class="ColorScheme-Text" d="M11.5 3C8.463 3 6 5.328 6 8.2c.002.133.009.266.021.4H6V9H4.834C4.372 9 4 9.346 4 9.777v5.446c0 .43.372.777.834.777H6v2.2c0 .442.377.8.846.8h2.963l1.267-2h.848l1.267 2h2.963c.47 0 .846-.358.846-.8V16h1.166c.462 0 .834-.346.834-.777V9.777c0-.43-.372-.777-.834-.777H17v-.4h-.018A4.92 4.92 0 0 0 17 8.2C17 5.327 14.537 3 11.5 3zm0 2c1.933 0 3.5.999 3.5 3.977l-.002.046L8 9.021v-.044C8 5.999 9.567 5 11.5 5zM9 7v1h1V7H9zm4 0v1h1V7h-1zm-5.5 4A1.5 1.5 0 0 1 9 12.5 1.5 1.5 0 0 1 7.5 14 1.5 1.5 0 0 1 6 12.5 1.5 1.5 0 0 1 7.5 11zm4 0a1.5 1.5 0 0 1 1.5 1.5 1.5 1.5 0 0 1-1.5 1.5 1.5 1.5 0 0 1-1.5-1.5 1.5 1.5 0 0 1 1.5-1.5zm4 0a1.5 1.5 0 0 1 1.5 1.5 1.5 1.5 0 0 1-1.5 1.5 1.5 1.5 0 0 1-1.5-1.5 1.5 1.5 0 0 1 1.5-1.5z" opacity=".3" fill="currentColor"/><path class="ColorScheme-Text" d="M7 12v1h1v-1H7zm4 0v1h1v-1h-1zm4 0v1h1v-1h-1z" fill="currentColor"/></svg>
